svg/s/VG.svg

<svg width="16" height="12" viewBox="0 0 16 12" fill="none" xmlns="http://www.w3.org/2000/svg">
<mask id="mask0" mask-type="alpha" maskUnits="userSpaceOnUse" x="0" y="0" width="16" height="12">
<rect width="16" height="12" fill="white"/>
</mask>
<g mask="url(#mask0)">
<path fill-rule="evenodd" clip-rule="evenodd" d="M0 0V12H16V0H0Z" fill="#2E42A5"/>
<mask id="mask1" mask-type="alpha" maskUnits="userSpaceOnUse" x="0" y="0" width="16" height="12">
<path fill-rule="evenodd" clip-rule="evenodd" d="M0 0V12H16V0H0Z" fill="white"/>
</mask>
<g mask="url(#mask1)">
<mask id="mask2" mask-type="alpha" maskUnits="userSpaceOnUse" x="0" y="0" width="9" height="7">
<rect width="9" height="7" fill="white"/>
</mask>
<g mask="url(#mask2)">
<path d="M-1.00214 6.49981L0.978339 7.36841L9.04494 0.944269L10.0896 -0.346497L7.97176 -0.636808L4.68159 2.13154L2.03334 3.99675L-1.00214 6.49981Z" fill="#F7FCFF"/>
<path d="M-0.731018 7.10849L0.277943 7.61255L9.71445 -0.466309H8.29775L-0.731018 7.10849Z" fill="#F50100"/>
<path d="M10.0021 6.49981L8.02166 7.36841L-0.0449371 0.944269L-1.08959 -0.346497L1.02824 -0.636808L4.31841 2.13154L6.96666 3.99675L10.0021 6.49981Z" fill="#F7FCFF"/>
<path d="M9.93457 6.93661L8.92561 7.44067L4.90745 3.9817L3.71615 3.59523L-1.1901 -0.342034H0.226597L5.13009 3.50178L6.43256 3.96519L9.93457 6.93661Z" fill="#F50100"/>
<mask id="path-10-outside-1" maskUnits="userSpaceOnUse" x="-1" y="-1" width="11" height="9" fill="black">
<rect fill="white" x="-1" y="-1" width="11" height="9"/>
<path fill-rule="evenodd" clip-rule="evenodd" d="M4.99226 0H3.99226V3H0V4H3.99226V7H4.99226V4H9V3H4.99226V0Z"/>
</mask>
<path fill-rule="evenodd" clip-rule="evenodd" d="M4.99226 0H3.99226V3H0V4H3.99226V7H4.99226V4H9V3H4.99226V0Z" fill="#F50100"/>
<path d="M3.99226 0V-0.75H3.24226V0H3.99226ZM4.99226 0H5.74226V-0.75H4.99226V0ZM3.99226 3V3.75H4.74226V3H3.99226ZM0 3V2.25H-0.75V3H0ZM0 4H-0.75V4.75H0V4ZM3.99226 4H4.74226V3.25H3.99226V4ZM3.99226 7H3.24226V7.75H3.99226V7ZM4.99226 7V7.75H5.74226V7H4.99226ZM4.99226 4V3.25H4.24226V4H4.99226ZM9 4V4.75H9.75V4H9ZM9 3H9.75V2.25H9V3ZM4.99226 3H4.24226V3.75H4.99226V3ZM3.99226 0.75H4.99226V-0.75H3.99226V0.75ZM4.74226 3V0H3.24226V3H4.74226ZM0 3.75H3.99226V2.25H0V3.75ZM0.75 4V3H-0.75V4H0.75ZM3.99226 3.25H0V4.75H3.99226V3.25ZM4.74226 7V4H3.24226V7H4.74226ZM4.99226 6.25H3.99226V7.75H4.99226V6.25ZM4.24226 4V7H5.74226V4H4.24226ZM9 3.25H4.99226V4.75H9V3.25ZM8.25 3V4H9.75V3H8.25ZM4.99226 3.75H9V2.25H4.99226V3.75ZM4.24226 0V3H5.74226V0H4.24226Z" fill="#F7FCFF" mask="url(#path-10-outside-1)"/>
</g>
<path fill-rule="evenodd" clip-rule="evenodd" d="M10.1234 5.01636V8.28093C10.1234 8.28093 10.075 10.982 12.5643 10.982C15.0537 10.982 15.0537 8.28093 15.0537 8.28093V5.01636H10.1234Z" fill="#3B7E05" stroke="#F7FCFF" stroke-width="0.25"/>
<path fill-rule="evenodd" clip-rule="evenodd" d="M10.1185 9.9443L10.5151 9.54614C11.1349 10.3116 11.7868 10.6842 12.48 10.6842C13.1731 10.6842 13.8244 10.3117 14.4432 9.5463L14.669 9.77259L14.6785 9.7584C14.8165 9.87523 14.9075 9.98455 14.9512 10.1112C15.0224 10.3174 14.9464 10.5156 14.7796 10.6205C14.7382 10.6465 14.7054 10.6652 14.6762 10.6788C14.6085 10.7103 14.5542 10.724 14.4737 10.7013C14.3917 10.6782 14.3228 10.6151 14.2871 10.5282C13.7246 11.0257 13.121 11.2787 12.48 11.2787C11.8444 11.2787 11.2454 11.0301 10.6865 10.541C10.6492 10.6264 10.5795 10.6877 10.4976 10.7092C10.4167 10.7305 10.3626 10.7159 10.2955 10.6832C10.2666 10.6691 10.2341 10.6498 10.1932 10.6231C10.0282 10.5153 9.95572 10.3158 10.0305 10.1109C10.0508 10.0551 10.0834 10.0034 10.1257 9.95308C10.1233 9.95016 10.1209 9.94723 10.1185 9.9443Z" fill="#FFD018"/>
<path d="M10.5151 9.54614L10.5734 9.49895L10.5209 9.43408L10.462 9.49321L10.5151 9.54614ZM10.1185 9.9443L10.0654 9.89137L10.0178 9.93912L10.0602 9.99149L10.1185 9.9443ZM14.4432 9.5463L14.4963 9.49333L14.4374 9.43424L14.3849 9.49915L14.4432 9.5463ZM14.669 9.77259L14.6159 9.82556L14.6802 9.89003L14.7311 9.81456L14.669 9.77259ZM14.6785 9.7584L14.727 9.70115L14.6632 9.64712L14.6164 9.71643L14.6785 9.7584ZM14.9512 10.1112L15.0221 10.0867V10.0867L14.9512 10.1112ZM14.7796 10.6205L14.7397 10.557V10.557L14.7796 10.6205ZM14.6762 10.6788L14.6445 10.6108L14.6762 10.6788ZM14.4737 10.7013L14.494 10.6291V10.6291L14.4737 10.7013ZM14.2871 10.5282L14.3565 10.4997L14.3164 10.4022L14.2374 10.4721L14.2871 10.5282ZM10.6865 10.541L10.7359 10.4845L10.6588 10.4171L10.6178 10.5109L10.6865 10.541ZM10.4976 10.7092L10.4785 10.6367H10.4785L10.4976 10.7092ZM10.2955 10.6832L10.3284 10.6158H10.3284L10.2955 10.6832ZM10.1932 10.6231L10.1521 10.6859H10.1521L10.1932 10.6231ZM10.0305 10.1109L10.1009 10.1365L10.0305 10.1109ZM10.1257 9.95308L10.1831 10.0013L10.2229 9.95386L10.1838 9.90578L10.1257 9.95308ZM10.462 9.49321L10.0654 9.89137L10.1717 9.99723L10.5682 9.59907L10.462 9.49321ZM12.48 10.6092C11.8174 10.6092 11.1849 10.2541 10.5734 9.49895L10.4568 9.59334C11.0849 10.3691 11.7562 10.7592 12.48 10.7592V10.6092ZM14.3849 9.49915C13.7744 10.2542 13.1424 10.6092 12.48 10.6092V10.7592C13.2037 10.7592 13.8744 10.3691 14.5015 9.59346L14.3849 9.49915ZM14.722 9.71962L14.4963 9.49333L14.3901 9.59927L14.6159 9.82556L14.722 9.71962ZM14.6164 9.71643L14.6068 9.73062L14.7311 9.81456L14.7407 9.80036L14.6164 9.71643ZM15.0221 10.0867C14.9721 9.94162 14.8694 9.8217 14.727 9.70115L14.6301 9.81564C14.7637 9.92875 14.843 10.0275 14.8803 10.1356L15.0221 10.0867ZM14.8195 10.684C15.016 10.5604 15.1045 10.3257 15.0221 10.0867L14.8803 10.1356C14.9402 10.3092 14.8767 10.4708 14.7397 10.557L14.8195 10.684ZM14.7078 10.7468C14.7412 10.7313 14.7771 10.7107 14.8195 10.684L14.7397 10.557C14.6994 10.5823 14.6696 10.5991 14.6445 10.6108L14.7078 10.7468ZM14.4533 10.7735C14.5023 10.7873 14.5465 10.7908 14.5902 10.7847C14.633 10.7786 14.6712 10.7639 14.7078 10.7468L14.6445 10.6108C14.6135 10.6253 14.5907 10.6331 14.5693 10.6361C14.5488 10.639 14.5257 10.638 14.494 10.6291L14.4533 10.7735ZM14.2177 10.5567C14.2614 10.663 14.3472 10.7436 14.4533 10.7735L14.494 10.6291C14.4361 10.6128 14.3842 10.5672 14.3565 10.4997L14.2177 10.5567ZM12.48 11.3537C13.1426 11.3537 13.7633 11.0916 14.3368 10.5844L14.2374 10.4721C13.686 10.9598 13.0994 11.2037 12.48 11.2037V11.3537ZM10.6371 10.5974C11.207 11.0961 11.823 11.3537 12.48 11.3537V11.2037C11.8658 11.2037 11.2837 10.964 10.7359 10.4845L10.6371 10.5974ZM10.5167 10.7818C10.6226 10.7539 10.7095 10.6756 10.7552 10.571L10.6178 10.5109C10.5888 10.5772 10.5363 10.6215 10.4785 10.6367L10.5167 10.7818ZM10.2627 10.7506C10.299 10.7683 10.337 10.7838 10.3796 10.7905C10.4232 10.7975 10.4675 10.7947 10.5167 10.7818L10.4785 10.6367C10.4467 10.6451 10.4235 10.6456 10.4031 10.6424C10.3818 10.639 10.3592 10.6308 10.3284 10.6158L10.2627 10.7506ZM10.1521 10.6859C10.1941 10.7133 10.2296 10.7345 10.2627 10.7506L10.3284 10.6158C10.3035 10.6037 10.274 10.5863 10.2342 10.5603L10.1521 10.6859ZM9.95999 10.0852C9.8734 10.3227 9.95782 10.5589 10.1521 10.6859L10.2342 10.5603C10.0987 10.4717 10.038 10.309 10.1009 10.1365L9.95999 10.0852ZM10.0682 9.90485C10.022 9.95985 9.98408 10.0191 9.95999 10.0852L10.1009 10.1365C10.1175 10.0911 10.1448 10.0469 10.1831 10.0013L10.0682 9.90485ZM10.0602 9.99149C10.0626 9.99446 10.065 9.99743 10.0675 10.0004L10.1838 9.90578C10.1815 9.90289 10.1792 9.9 10.1768 9.8971L10.0602 9.99149Z" fill="white"/>
<path d="M11.0658 7.32446L11.028 7.16044V5.77124C11.028 5.56413 11.1959 5.39624 11.403 5.39624C11.6101 5.39624 11.778 5.56413 11.778 5.77124V7.07408L12.1378 7.81377C12.2101 7.96237 12.1766 8.14077 12.0553 8.25301L11.6418 8.63565V9.35594C11.6418 9.56304 11.474 9.73094 11.2668 9.73094C11.0597 9.73094 10.8918 9.56304 10.8918 9.35594V8.47176C10.8918 8.36727 10.9354 8.26752 11.0121 8.19655L11.3416 7.89159L11.0658 7.32446Z" fill="#FFD018"/>
<path d="M13.6255 5.74976V9.45213" stroke="#FFD018" stroke-width="0.75" stroke-linecap="round" stroke-linejoin="round"/>
<path fill-rule="evenodd" clip-rule="evenodd" d="M12.3199 6.29272L12.1517 6.83945C12.1517 6.83945 11.8699 7.20396 11.818 7.38259C11.766 7.56122 11.7375 7.67991 11.7518 7.67991C11.766 7.67991 11.8811 7.62905 11.8811 7.50582C11.8811 7.38259 12.3199 6.98632 12.3199 6.98632L12.4508 6.29272H12.3199Z" fill="#FFC6B5"/>
<path fill-rule="evenodd" clip-rule="evenodd" d="M13.6859 5.43438C13.6899 5.42659 13.6922 5.41761 13.6922 5.40806C13.6922 5.3782 13.6698 5.354 13.6422 5.354C13.6146 5.354 13.5922 5.3782 13.5922 5.40806C13.5922 5.42093 13.5964 5.43275 13.6033 5.44203L13.4141 5.73499L13.4338 5.75076L13.6229 5.45795C13.6289 5.46063 13.6354 5.46211 13.6422 5.46211C13.6519 5.46211 13.661 5.45911 13.6687 5.45391L13.8677 5.75095L13.8871 5.73479L13.6859 5.43438ZM13.6791 5.6878C13.6872 5.67819 13.6922 5.66537 13.6922 5.6513C13.6922 5.62145 13.6698 5.59725 13.6422 5.59725C13.6146 5.59725 13.5922 5.62145 13.5922 5.6513C13.5922 5.66951 13.6005 5.68561 13.6133 5.6954L13.5659 5.75242H13.2447C13.2447 5.75242 13.2799 5.83293 13.3894 5.85419C13.4228 5.88598 13.5084 5.94514 13.5084 5.94514L13.4596 6.00441H13.8059V5.94514C13.8903 5.9445 13.922 5.87788 13.9333 5.8541C13.9379 5.84429 13.9391 5.84177 13.9391 5.85419C13.9391 5.89671 14.0007 5.85419 14.0007 5.85419C14.0007 5.85419 14.103 5.75242 14.103 5.65543C14.103 5.55844 13.8892 5.75242 13.8892 5.75242H13.7441L13.6791 5.6878Z" fill="#FFD018"/>
<path fill-rule="evenodd" clip-rule="evenodd" d="M12.73 6.07394C12.7348 6.08391 12.7383 6.0914 12.7383 6.10195C12.7383 6.13348 12.6047 6.17977 12.5083 6.17977C12.4119 6.17977 12.4497 6.10195 12.5083 6.05879C12.5669 6.01563 12.5036 5.94135 12.4497 5.94135C12.3986 5.94135 12.3987 5.86909 12.3989 5.81102C12.3989 5.80796 12.3989 5.80493 12.3989 5.80195V5.57571C12.3989 5.48494 12.4235 5.49557 12.4705 5.51589C12.4981 5.52785 12.5335 5.54315 12.5762 5.54315C12.648 5.54315 12.652 5.55968 12.6627 5.60443C12.6693 5.63162 12.6783 5.66923 12.7066 5.71987C12.7516 5.80053 12.7425 5.81909 12.728 5.84831C12.7185 5.86764 12.7066 5.89163 12.7066 5.94135C12.7066 6.02445 12.7207 6.0541 12.73 6.07394ZM12.8491 6.65422L12.8775 6.34672C12.8775 6.34672 12.8491 6.23424 12.9155 6.23424C12.982 6.23424 13.0851 6.77203 13.1224 6.98764C13.1463 7.12553 13.1244 7.15112 13.0611 7.22502C13.0254 7.26668 12.9767 7.32368 12.9155 7.42479C12.8138 7.59298 12.8204 7.6914 12.8254 7.7664C12.8287 7.81649 12.8314 7.85613 12.8006 7.89912C12.7291 7.99907 12.6998 7.90449 12.6712 7.81221C12.6691 7.80535 12.667 7.7985 12.6648 7.79174C12.6375 7.70543 12.7621 7.44377 12.8467 7.26604C12.8578 7.2428 12.8682 7.22099 12.8775 7.20119C12.9576 7.03007 12.9501 6.97034 12.9155 6.89868C12.881 6.82701 12.8491 6.65422 12.8491 6.65422Z" fill="#FFC6B5"/>
<path fill-rule="evenodd" clip-rule="evenodd" d="M13.0097 9.68478C13.0097 9.76297 12.95 9.82635 12.8762 9.82635C12.8025 9.82635 12.7427 9.76297 12.7427 9.68478C12.7427 9.6066 12.8025 9.54321 12.8762 9.54321C12.95 9.54321 13.0097 9.6066 13.0097 9.68478ZM12.2998 9.72412C12.2399 9.77438 12.1669 9.78598 12.1367 9.75004C12.1066 9.7141 12.1307 9.64422 12.1906 9.59397C12.2505 9.54371 12.3235 9.5321 12.3536 9.56804C12.3838 9.60398 12.3597 9.67386 12.2998 9.72412Z" fill="#FFD018"/>
<path fill-rule="evenodd" clip-rule="evenodd" d="M12.4755 5.39227C12.4755 5.39227 12.3367 5.42046 12.383 5.48997C12.4292 5.55949 12.3227 5.54151 12.4755 5.5505C12.6284 5.55949 12.6702 5.61513 12.6493 5.65624C12.6284 5.69735 12.6119 5.79943 12.6493 5.86093C12.6867 5.92244 12.6985 6.02947 12.7645 5.97595C12.8305 5.92244 12.9572 5.84891 12.9184 5.75258C12.8796 5.65624 12.934 5.54417 12.8493 5.48997C12.7645 5.43577 12.7455 5.46892 12.697 5.39227C12.6485 5.31562 12.577 5.29452 12.5263 5.34339C12.4755 5.39227 12.4755 5.39227 12.4755 5.39227Z" fill="#A95601"/>
<path fill-rule="evenodd" clip-rule="evenodd" d="M12.448 6.08862C12.448 6.08862 12.169 6.42458 12.2147 6.54295C12.2604 6.66132 12.3286 6.66755 12.2945 6.83584C12.2604 7.00414 12.3153 7.26432 12.2147 7.59532C12.1141 7.92632 12.048 8.70292 12.081 8.70292C12.1141 8.70292 12.16 9.13192 12.1205 9.32437C12.081 9.51682 11.8056 9.67784 12.081 9.67784C12.3564 9.67784 12.3891 9.71599 12.4991 9.67784C12.6092 9.63969 12.7654 9.78761 12.7654 9.67784C12.7654 9.56807 12.7771 9.5456 12.861 9.5456C12.9449 9.5456 12.9407 9.5456 13.0149 9.5456C13.0892 9.5456 13.1866 9.61472 13.1866 9.45073C13.1866 9.28673 13.2047 8.93434 13.1098 8.66069C13.0149 8.38704 13.0472 8.56179 12.9541 8.19586C12.899 7.97911 12.8564 7.89308 12.8229 7.81736C12.7998 7.76526 12.7339 7.85673 12.7183 7.77515C12.713 7.74748 12.758 7.58518 12.7585 7.56434C12.7615 7.43442 12.861 7.41231 12.861 7.18882C12.861 6.92949 12.7988 6.64459 12.861 6.50203C12.9232 6.35948 13.0758 6.4452 13.0149 6.30655C12.9541 6.16791 12.9343 6.08862 12.8198 6.08862C12.7053 6.08862 12.448 6.08862 12.448 6.08862Z" fill="#F7FCFF"/>
</g>
</g>
</svg>

<svg width="16" height="12" fill="none" xmlns="http://www.w3.org/2000/svg">
  <g mask="url(#VG_-_Virgin_Islands_(British)__a)">
    <path fill-rule="evenodd" clip-rule="evenodd" d="M0 0v12h16V0H0z" fill="#2E42A5"/>
    <g mask="url(#VG_-_Virgin_Islands_(British)__b)">
      <g mask="url(#VG_-_Virgin_Islands_(British)__c)">
        <path d="M-1.002 6.5l1.98.868L9.045.944l1.045-1.29-2.118-.29-3.29 2.768-2.649 1.865L-1.002 6.5z" fill="#F7FCFF"/>
        <path d="M-.731 7.108l1.009.505 9.436-8.08H8.298L-.731 7.109z" fill="#F50100"/>
        <path d="M10.002 6.5l-1.98.868L-.045.944-1.09-.346l2.118-.29 3.29 2.768 2.649 1.865L10.002 6.5z" fill="#F7FCFF"/>
        <path d="M9.935 6.937l-1.01.504-4.018-3.46-1.19-.386L-1.19-.342H.227L5.13 3.502l1.303.463 3.502 2.972z" fill="#F50100"/>
        <path fill-rule="evenodd" clip-rule="evenodd" d="M4.992 0h-1v3H0v1h3.992v3h1V4H9V3H4.992V0z" fill="#F50100"/>
        <path d="M3.992 0v-.75h-.75V0h.75zm1 0h.75v-.75h-.75V0zm-1 3v.75h.75V3h-.75zM0 3v-.75h-.75V3H0zm0 1h-.75v.75H0V4zm3.992 0h.75v-.75h-.75V4zm0 3h-.75v.75h.75V7zm1 0v.75h.75V7h-.75zm0-3v-.75h-.75V4h.75zM9 4v.75h.75V4H9zm0-1h.75v-.75H9V3zM4.992 3h-.75v.75h.75V3zm-1-2.25h1v-1.5h-1v1.5zM4.742 3V0h-1.5v3h1.5zM0 3.75h3.992v-1.5H0v1.5zM.75 4V3h-1.5v1h1.5zm3.242-.75H0v1.5h3.992v-1.5zM4.742 7V4h-1.5v3h1.5zm.25-.75h-1v1.5h1v-1.5zM4.242 4v3h1.5V4h-1.5zM9 3.25H4.992v1.5H9v-1.5zM8.25 3v1h1.5V3h-1.5zm-3.258.75H9v-1.5H4.992v1.5zM4.242 0v3h1.5V0h-1.5z" fill="#F7FCFF" mask="url(#VG_-_Virgin_Islands_(British)__d)"/>
      </g>
      <path fill-rule="evenodd" clip-rule="evenodd" d="M10.123 5.016v3.265s-.048 2.701 2.441 2.701c2.49 0 2.49-2.701 2.49-2.701V5.016h-4.93z" fill="#3B7E05" stroke="#F7FCFF" stroke-width=".25"/>
      <path fill-rule="evenodd" clip-rule="evenodd" d="M10.118 9.944l.397-.398c.62.766 1.272 1.138 1.965 1.138.693 0 1.344-.372 1.963-1.138l.226.227.01-.015c.137.117.229.227.272.353a.421.421 0 01-.171.51.97.97 0 01-.104.058.26.26 0 01-.202.022.29.29 0 01-.187-.173c-.562.498-1.166.75-1.807.75-.636 0-1.235-.248-1.793-.737a.29.29 0 01-.19.168.26.26 0 01-.201-.026.957.957 0 01-.103-.06.421.421 0 01-.162-.512.526.526 0 01.095-.158l-.008-.009z" fill="#FFD018"/>
      <path d="M10.515 9.546l.058-.047-.052-.065-.059.06.053.052zm-.397.398l-.053-.053-.047.048.042.053.058-.048zm4.325-.398l.053-.053-.059-.059-.052.065.058.047zm.226.227l-.053.053.064.064.051-.075-.062-.042zm.01-.015l.048-.057-.064-.054-.047.07.063.041zm.272.353l.071-.024-.07.024zm-.171.51l-.04-.064.04.063zm-.104.058l-.031-.068.031.068zm-.202.022l.02-.072-.02.072zm-.187-.173l.07-.028-.04-.098-.08.07.05.056zm-3.6.013l.049-.056-.077-.068-.041.094.069.03zm-.19.168l-.018-.072.019.072zm-.201-.026l.032-.067-.032.067zm-.103-.06l-.04.063.04-.063zm-.162-.512l.07.026-.07-.026zm.095-.158l.057.048.04-.047-.04-.048-.057.047zm.336-.46l-.397.398.107.106.396-.398-.106-.106zm2.018 1.116c-.663 0-1.295-.355-1.907-1.11l-.116.094c.628.776 1.3 1.166 2.023 1.166v-.15zm1.905-1.11c-.61.755-1.243 1.11-1.905 1.11v.15c.724 0 1.394-.39 2.021-1.165l-.116-.095zm.337.22l-.226-.226-.106.106.226.227.106-.106zm-.106-.003l-.01.015.125.084.01-.015-.125-.084zm.406.37c-.05-.144-.153-.264-.295-.385l-.097.115c.134.113.213.211.25.32l.142-.05zm-.203.598a.496.496 0 00.203-.597l-.142.049a.347.347 0 01-.14.421l.08.127zm-.111.063a.963.963 0 00.111-.063l-.08-.127a.884.884 0 01-.095.054l.064.136zm-.255.027a.326.326 0 00.255-.027l-.063-.136a.269.269 0 01-.076.025.177.177 0 01-.075-.007l-.04.145zm-.235-.217c.043.106.13.187.235.217l.041-.145a.216.216 0 01-.137-.13l-.14.058zm-1.738.797c.663 0 1.283-.262 1.857-.77l-.1-.112c-.551.488-1.138.732-1.757.732v.15zm-1.843-.756c.57.498 1.186.756 1.843.756v-.15c-.614 0-1.196-.24-1.744-.72l-.099.114zm-.12.184a.365.365 0 00.238-.21l-.137-.061a.216.216 0 01-.14.126l.039.145zm-.254-.031a.326.326 0 00.254.031l-.039-.145a.18.18 0 01-.075.005.269.269 0 01-.075-.026l-.065.135zm-.11-.065c.041.027.077.049.11.065l.065-.135a.87.87 0 01-.094-.056l-.082.126zm-.193-.6a.496.496 0 00.192.6l.082-.126a.347.347 0 01-.133-.423l-.141-.052zm.108-.181a.602.602 0 00-.108.18l.14.052a.454.454 0 01.083-.136l-.115-.096zm-.008.087a.76.76 0 00.008.008l.116-.094-.007-.009-.117.095z" fill="#fff"/>
      <path d="M11.066 7.324l-.038-.164V5.771a.375.375 0 01.75 0v1.303l.36.74a.375.375 0 01-.083.439l-.413.383v.72a.375.375 0 11-.75 0v-.884c0-.105.043-.205.12-.276l.33-.304-.276-.568z" fill="#FFD018"/>
      <path d="M13.626 5.75v3.702" stroke="#FFD018" stroke-width=".75" stroke-linecap="round" stroke-linejoin="round"/>
      <path fill-rule="evenodd" clip-rule="evenodd" d="M12.32 6.293l-.168.547s-.282.364-.334.543c-.052.178-.08.297-.066.297.014 0 .13-.05.13-.174 0-.123.438-.52.438-.52l.13-.693h-.13z" fill="#FFC6B5"/>
      <path fill-rule="evenodd" clip-rule="evenodd" d="M13.686 5.434a.058.058 0 00.006-.026c0-.03-.022-.054-.05-.054-.027 0-.05.024-.05.054 0 .013.004.025.011.034l-.189.293.02.016.189-.293a.047.047 0 00.046-.004l.199.297.02-.016-.202-.3zm-.007.254a.057.057 0 00.013-.037c0-.03-.022-.054-.05-.054-.027 0-.05.025-.05.054 0 .019.008.035.021.044l-.047.057h-.321s.035.081.144.102c.034.032.12.091.12.091l-.05.06h.347v-.06c.084 0 .116-.067.127-.09.005-.01.006-.013.006 0 0 .042.062 0 .062 0s.102-.103.102-.2c0-.096-.214.097-.214.097h-.145l-.065-.064z" fill="#FFD018"/>
      <path fill-rule="evenodd" clip-rule="evenodd" d="M12.73 6.074a.06.06 0 01.008.028c0 .032-.133.078-.23.078-.096 0-.058-.078 0-.121.059-.043-.004-.118-.058-.118-.051 0-.051-.072-.051-.13v-.235c0-.091.025-.08.072-.06a.26.26 0 00.105.027c.072 0 .076.017.087.061a.375.375 0 00.044.116c.045.08.035.1.021.128a.183.183 0 00-.021.093c0 .084.014.113.023.133zm.12.58l.027-.307s-.028-.113.038-.113c.067 0 .17.538.207.754.024.138.002.163-.06.237a1.365 1.365 0 00-.146.2.499.499 0 00-.09.341c.003.05.005.09-.025.133-.072.1-.101.006-.13-.087a1.194 1.194 0 00-.006-.02c-.027-.087.097-.348.182-.526l.03-.065c.08-.17.073-.23.038-.302-.034-.072-.066-.245-.066-.245z" fill="#FFC6B5"/>
      <path fill-rule="evenodd" clip-rule="evenodd" d="M13.01 9.685c0 .078-.06.141-.134.141-.073 0-.133-.063-.133-.141 0-.078.06-.142.133-.142.074 0 .134.064.134.142zm-.71.04c-.06.05-.133.061-.163.025s-.006-.106.054-.156.132-.062.163-.026c.03.036.006.106-.054.156z" fill="#FFD018"/>
      <path fill-rule="evenodd" clip-rule="evenodd" d="M12.476 5.392s-.14.029-.093.098c.046.07-.06.052.093.06.152.01.194.065.173.106-.02.041-.037.143 0 .205.038.062.05.169.116.115.066-.053.192-.127.153-.223-.038-.097.016-.209-.069-.263-.085-.054-.104-.021-.152-.098-.048-.076-.12-.097-.17-.049l-.051.05z" fill="#A95601"/>
      <path fill-rule="evenodd" clip-rule="evenodd" d="M12.448 6.089s-.279.336-.233.454c.045.118.114.125.08.293-.035.168.02.428-.08.76-.1.33-.167 1.107-.134 1.107s.079.429.04.621c-.04.193-.315.354-.04.354s.308.038.418 0c.11-.038.266.11.266 0s.012-.132.096-.132h.154c.074 0 .172.069.172-.095s.018-.517-.077-.79c-.095-.274-.063-.1-.156-.465-.055-.217-.098-.303-.131-.379-.023-.052-.09.04-.105-.042-.005-.027.04-.19.04-.21.004-.13.103-.153.103-.376 0-.26-.062-.544 0-.687.062-.142.215-.057.154-.195-.06-.139-.08-.218-.195-.218h-.372z" fill="#F7FCFF"/>
    </g>
  </g>
</svg>
